src/icons/increase2.svg

<?xml version="1.0" encoding="UTF-8"?>
<svg xmlns="http://www.w3.org/2000/svg" xmlns:xlink="http://www.w3.org/1999/xlink" width="32" height="32" viewBox="0 0 32 32" version="1.1">
<g id="surface1">
<path style=" stroke:none;fill-rule:nonzero;fill:rgb(0%,0%,0%);fill-opacity:1;" d="M 16 1.234375 L 12.457031 4.777344 C 12.289062 4.9375 12.222656 5.175781 12.28125 5.402344 C 12.339844 5.625 12.515625 5.800781 12.738281 5.859375 C 12.964844 5.917969 13.203125 5.851562 13.363281 5.683594 L 15.359375 3.683594 L 15.359375 9.601562 C 15.355469 9.832031 15.476562 10.046875 15.675781 10.160156 C 15.875 10.277344 16.125 10.277344 16.324219 10.160156 C 16.523438 10.046875 16.644531 9.832031 16.640625 9.601562 L 16.640625 3.683594 L 18.636719 5.683594 C 18.796875 5.851562 19.035156 5.917969 19.261719 5.859375 C 19.484375 5.800781 19.660156 5.625 19.71875 5.402344 C 19.777344 5.175781 19.710938 4.9375 19.542969 4.777344 Z M 25.601562 6.355469 L 22.058594 9.898438 C 21.890625 10.058594 21.824219 10.296875 21.882812 10.519531 C 21.941406 10.746094 22.113281 10.921875 22.339844 10.980469 C 22.5625 11.035156 22.800781 10.96875 22.960938 10.800781 L 24.960938 8.804688 L 24.960938 14.71875 C 24.957031 14.949219 25.078125 15.164062 25.277344 15.28125 C 25.476562 15.398438 25.722656 15.398438 25.921875 15.28125 C 26.121094 15.164062 26.242188 14.949219 26.238281 14.71875 L 26.238281 8.804688 L 28.238281 10.800781 C 28.398438 10.96875 28.636719 11.035156 28.859375 10.980469 C 29.085938 10.921875 29.261719 10.746094 29.320312 10.519531 C 29.378906 10.296875 29.308594 10.058594 29.140625 9.898438 Z M 6.398438 10.832031 L 2.859375 14.378906 C 2.691406 14.539062 2.621094 14.777344 2.679688 15 C 2.738281 15.226562 2.914062 15.398438 3.140625 15.457031 C 3.363281 15.515625 3.601562 15.449219 3.761719 15.28125 L 5.761719 13.285156 L 5.761719 19.199219 C 5.757812 19.429688 5.878906 19.644531 6.078125 19.761719 C 6.277344 19.878906 6.523438 19.878906 6.722656 19.761719 C 6.921875 19.644531 7.042969 19.429688 7.039062 19.199219 L 7.039062 13.285156 L 9.039062 15.28125 C 9.199219 15.449219 9.4375 15.515625 9.660156 15.457031 C 9.886719 15.398438 10.058594 15.226562 10.117188 15 C 10.175781 14.777344 10.109375 14.539062 9.941406 14.378906 Z M 12.800781 11.519531 C 12.445312 11.519531 12.160156 11.808594 12.160156 12.160156 L 12.160156 29.441406 C 12.160156 29.792969 12.445312 30.078125 12.800781 30.078125 L 19.199219 30.078125 C 19.554688 30.078125 19.839844 29.792969 19.839844 29.441406 L 19.839844 12.160156 C 19.839844 11.808594 19.554688 11.519531 19.199219 11.519531 Z M 22.398438 16.640625 C 22.046875 16.640625 21.761719 16.925781 21.761719 17.28125 L 21.761719 29.441406 C 21.761719 29.792969 22.046875 30.078125 22.398438 30.078125 L 28.800781 30.078125 C 29.152344 30.078125 29.441406 29.792969 29.441406 29.441406 L 29.441406 17.28125 C 29.441406 16.925781 29.152344 16.640625 28.800781 16.640625 Z M 3.199219 21.121094 C 2.847656 21.121094 2.558594 21.40625 2.558594 21.761719 L 2.558594 29.441406 C 2.558594 29.792969 2.847656 30.078125 3.199219 30.078125 L 9.601562 30.078125 C 9.953125 30.078125 10.238281 29.792969 10.238281 29.441406 L 10.238281 21.761719 C 10.238281 21.40625 9.953125 21.121094 9.601562 21.121094 Z M 3.199219 21.121094 "/>
</g>
</svg>

<svg role="img" viewBox="0 0 32 32" xmlns="http://www.w3.org/2000/svg"><path d="m16 1.234-3.543 3.543a.64.64 0 0 0 .281 1.082.64.64 0 0 0 .625-.175l1.996-2v5.918a.642.642 0 1 0 1.281 0V3.684l1.997 2a.64.64 0 0 0 1.082-.282.64.64 0 0 0-.176-.625Zm9.602 5.121-3.543 3.543a.635.635 0 0 0-.176.622.636.636 0 0 0 1.078.28l2-1.995v5.914a.64.64 0 0 0 .96.562.64.64 0 0 0 .317-.562V8.805l2 1.996c.16.168.399.234.621.18a.637.637 0 0 0 .281-1.082ZM6.398 10.832 2.86 14.379a.637.637 0 0 0 .282 1.078.635.635 0 0 0 .62-.176l2-1.996V19.2a.64.64 0 0 0 .962.563.64.64 0 0 0 .316-.563v-5.914l2 1.996c.16.168.399.235.621.176a.63.63 0 0 0 .457-.457.635.635 0 0 0-.176-.621Zm6.403.688a.64.64 0 0 0-.64.64v17.281c0 .352.284.637.64.637h6.398c.356 0 .64-.285.64-.637v-17.28a.641.641 0 0 0-.64-.641Zm9.597 5.12a.638.638 0 0 0-.636.641v12.16c0 .352.285.637.636.637h6.403a.64.64 0 0 0 .64-.637v-12.16a.64.64 0 0 0-.64-.64ZM3.2 21.122a.641.641 0 0 0-.64.64v7.68a.64.64 0 0 0 .64.637h6.403a.637.637 0 0 0 .636-.637v-7.68a.638.638 0 0 0-.636-.64Zm0 0" style="stroke:none;fill-rule:nonzero;fill:rgb(0%,0%,0%);fill-opacity:1"/></svg>
